src/svg/28/message_unread_outline_28.svg

<?xml version="1.0" encoding="UTF-8"?>
<svg width="28px" height="28px" viewBox="0 0 28 28" version="1.1" xmlns="http://www.w3.org/2000/svg" xmlns:xlink="http://www.w3.org/1999/xlink">
    <!-- Generator: Sketch 63.1 (92452) - https://sketch.com -->
    <title>message_unread_outline_28</title>
    <desc>Created with Sketch.</desc>
    <g id="Page-1" stroke="none" stroke-width="1" fill="none" fill-rule="evenodd">
        <g id="message_unread_outline_28">
            <rect x="0" y="0" width="28" height="28"></rect>
            <path d="M14,3.50000006 C20.3199997,3.50000006 25.4999999,7.94000025 25.4999999,13.5000001 C25.4999999,19.0599998 20.3199997,23.5000001 14,23.5000001 C12.6452635,23.5000001 11.321957,23.2962444 10.0757172,22.9034221 C8.67374672,24.2092411 6.61769639,24.8966312 3.95207331,25.001185 C3.72958929,25.0099115 3.5081301,24.9667038 3.3052433,24.8749856 C2.58373814,24.5488176 2.26323204,23.6995772 2.58929989,22.977804 C3.50005326,20.9631574 4.00232696,19.48012 4.10293424,18.5993963 C3.06166317,17.0730395 2.50000006,15.3231363 2.50000006,13.5000001 C2.50000006,7.94000025 7.68000028,3.50000006 14,3.50000006 Z M13.9999999,5.49999994 C8.72201998,5.49999994 4.49999994,9.11887426 4.49999994,13.4999999 C4.49999994,15.0077201 4.99683875,16.4549166 5.9262219,17.7132811 C6.05399475,17.8862827 6.12258756,18.0958685 6.12182181,18.310938 C6.11809371,19.3580171 5.67260458,20.8775879 4.79201143,22.9378299 C6.77867686,22.7297816 8.17968047,22.1065746 9.03658357,21.1014459 C9.30971963,20.7810632 9.75426496,20.6660655 10.1484987,20.8138089 C11.3498677,21.2640349 12.6542793,21.4999999 13.9999999,21.4999999 C19.27798,21.4999999 23.4999999,17.8811257 23.4999999,13.4999999 C23.4999999,9.11887426 19.27798,5.49999994 13.9999999,5.49999994 Z M14,12 C15.1045695,12 16,12.8954305 16,14 C16,15.1045695 15.1045695,16 14,16 C12.8954305,16 12,15.1045695 12,14 C12,12.8954305 12.8954305,12 14,12 Z" id="↳-Icon-Color" fill="currentColor" fill-rule="nonzero"></path>
        </g>
    </g>
</svg>

<svg xmlns="http://www.w3.org/2000/svg" width="28" height="28" fill="none" viewBox="0 0 28 28"><path fill="currentColor" d="M14 12c1.1046 0 2 .8954 2 2s-.8954 2-2 2-2-.8954-2-2 .8954-2 2-2Z"/><path fill="currentColor" fill-rule="evenodd" d="M2.5368 13.4989C2.5368 7.839 7.8258 3.5 14.0184 3.5 20.211 3.5 25.5 7.839 25.5 13.4989c0 5.66-5.289 9.999-11.4816 9.999-1.3731 0-2.693-.2099-3.918-.5966-1.4448 1.3485-3.5442 1.9967-6.1122 2.0976-1.046.0411-1.8011-1.047-1.3631-2.0209.6214-1.3914 1.4243-2.9865 1.5195-4.3778-1.0168-1.4807-1.6078-3.2281-1.6078-5.1013ZM14.0184 5.5c-5.385 0-9.4816 3.719-9.4816 7.9989 0 1.537.5146 2.9789 1.4219 4.2007a1 1 0 0 1 .1971.5961c0 1.6338-.6513 3.1753-1.3144 4.6382 2.056-.2184 3.4049-.8768 4.2182-1.8339a1 1 0 0 1 1.1136-.2886c1.1723.4402 2.4726.6865 3.8452.6865 5.3851 0 9.4816-3.7189 9.4816-7.999 0-4.28-4.0965-7.9989-9.4816-7.9989Z" clip-rule="evenodd"/></svg>
